img/settings-work-tool.svg

<svg xmlns="http://www.w3.org/2000/svg" width="41" height="40"><path d="M35.223 15.061l-.194-.07-.754-1.807.082-.185c2.286-5.201 2.128-5.356 1.749-5.733l-3.048-2.985a.815.815 0 00-.533-.211c-.171 0-.69 0-5.192 2.046l-.181.081-1.856-.75-.075-.186c-2.117-5.26-2.334-5.26-2.86-5.26h-4.305c-.525 0-.764 0-2.727 5.27l-.074.192-1.847.756-.177-.074c-3.047-1.29-4.826-1.944-5.29-1.944a.815.815 0 00-.533.209L4.357 7.403c-.387.383-.547.543 1.858 5.636l.088.189-.756 1.805-.185.072C-.002 17.186-.002 17.388-.002 17.93v4.233c0 .543 0 .769 5.375 2.703l.192.068.756 1.8-.081.184c-2.285 5.203-2.14 5.343-1.751 5.732l3.043 2.989a.839.839 0 00.537.211c.17 0 .688 0 5.193-2.046l.18-.085 1.859.755.072.187c2.118 5.259 2.336 5.259 2.863 5.259h4.306c.541 0 .764 0 2.729-5.274l.074-.192 1.849-.751.177.072c3.045 1.293 4.822 1.945 5.283 1.945a.813.813 0 00.536-.208l3.056-2.999c.384-.385.544-.543-1.865-5.63l-.09-.191.754-1.798.181-.07c5.373-2.092 5.373-2.296 5.373-2.839v-4.23c0-.544 0-.768-5.376-2.694zM20.298 26.826c-3.846 0-6.976-3.081-6.976-6.866 0-3.783 3.13-6.86 6.976-6.86 3.845 0 6.975 3.077 6.975 6.86 0 3.784-3.13 6.866-6.975 6.866z"/></svg>

<svg
		xmlns="http://www.w3.org/2000/svg"
		xmlns:xlink="http://www.w3.org/1999/xlink"
		width="41px" height="40px">
	<g>
		<path d="M35.223,15.061 L35.029,14.991 L34.275,13.184 L34.357,12.999 C36.643,7.798 36.485,7.643 36.106,7.266 L33.058,4.281 C32.933,4.157 32.714,4.070 32.525,4.070 C32.354,4.070 31.835,4.070 27.333,6.116 L27.152,6.197 L25.296,5.447 L25.221,5.261 C23.104,0.001 22.887,0.001 22.361,0.001 L18.056,0.001 C17.531,0.001 17.292,0.001 15.329,5.271 L15.255,5.463 L13.408,6.219 L13.231,6.145 C10.184,4.855 8.405,4.201 7.941,4.201 C7.753,4.201 7.533,4.286 7.408,4.410 L4.357,7.403 C3.970,7.786 3.810,7.946 6.215,13.039 L6.303,13.228 L5.547,15.033 L5.362,15.105 C-0.002,17.186 -0.002,17.388 -0.002,17.930 L-0.002,22.163 C-0.002,22.706 -0.002,22.932 5.373,24.866 L5.565,24.934 L6.321,26.734 L6.240,26.918 C3.955,32.121 4.100,32.261 4.489,32.650 L7.532,35.639 C7.660,35.762 7.881,35.850 8.069,35.850 C8.239,35.850 8.757,35.850 13.262,33.804 L13.442,33.719 L15.301,34.474 L15.373,34.661 C17.491,39.920 17.709,39.920 18.236,39.920 L22.542,39.920 C23.083,39.920 23.306,39.920 25.271,34.646 L25.345,34.454 L27.194,33.703 L27.371,33.775 C30.416,35.068 32.193,35.720 32.654,35.720 C32.841,35.720 33.063,35.639 33.190,35.512 L36.246,32.513 C36.630,32.128 36.790,31.970 34.381,26.883 L34.291,26.692 L35.045,24.894 L35.226,24.824 C40.599,22.732 40.599,22.528 40.599,21.985 L40.599,17.755 C40.599,17.211 40.599,16.987 35.223,15.061 ZM20.298,26.826 C16.452,26.826 13.322,23.745 13.322,19.960 C13.322,16.177 16.452,13.100 20.298,13.100 C24.143,13.100 27.273,16.177 27.273,19.960 C27.273,23.744 24.143,26.826 20.298,26.826 Z"/>
	</g>
</svg>
